PortableApps/LibreOfficePortable/App/libreoffice/help/media/icon-themes/cmd/sc_pasteonlytext.svg

<svg viewBox="0 0 16 16" xmlns="http://www.w3.org/2000/svg">/&amp;amp;gt;<path d="m2 2c-.554 0-1 .446-1 1v12c0 .554.446 1 1 1h12c.554 0 1-.446 1-1v-12c0-.554-.446-1-1-1h-1v2c0 .554-.446 1-1 1h-8c-.554 0-1-.446-1-1v-2z" fill="#eac282"/><path d="m8 0a2 2 0 0 0 -2 2h-2v1c-.554 0-1 .446-1 1v10c0 .554.446 1 1 1h8c.554 0 1-.446 1-1v-10c0-.554-.446-1-1-1v-1h-2a2 2 0 0 0 -2-2zm0 1a1 1 0 0 1 1 1 1 1 0 0 1 -1 1 1 1 0 0 1 -1-1 1 1 0 0 1 .0058594-.0996094 1 1 0 0 1 .9941406-.9003906z" fill="#808080"/><path d="m4 4v10h8v-10z" fill="#fdf9f3"/><path d="m9.442308 12.926964q-.173077 0-.264423-.04868-.09135-.05356-.144231-.209349l-.105769-.321324q-.182692.160662-.350962.282376-.168269.121714-.350961.204479-.177885.08277-.3846158.121714-.201923.04382-.451923.04382-.3076924 0-.5625001-.08277-.2548076-.087637-.4423077-.253168-.1826923-.165531-.2836538-.408958-.1009616-.248296-.1009616-.569621 0-.26777.1346154-.53554.1346154-.26777.4567308-.481986.3269231-.219085.8653846-.360273.5432692-.146056 1.3509622-.165531v-.258033q0-.4673806-.192308-.6864653-.192308-.2190846-.552885-.2190846-.2692306 0-.4471153.063291-.173077.063291-.3076923.1411879-.1346154.073028-.2500001.1363194-.1153845.063291-.2596153.063291-.125 0-.2163462-.063291-.086538-.06816-.1394231-.1606621l-.2211539-.3894839q.4134616-.3894839.9134616-.5793573.5-.1898735 1.0817306-.1898735.41827 0 .75.1411879.331731.1363194.5625.389484.23077.248296.350962.593963.120192.345667.120192.7594935v3.042844zm-1.6730772-.769231q.3269232 0 .5625002-.116845.240385-.121714.475962-.37001v-.778968q-.475962.01947-.79327.08277-.3124998.05842-.4999998.155794-.1875001.0925-.2692308.219084-.076923.126583-.076923.272639 0 .292113.1586538.413827.1634616.121713.4423076.121714z" fill="#808080"/></svg>

<?xml version="1.0" encoding="UTF-8" standalone="no"?>
<svg xmlns="http://www.w3.org/2000/svg" xmlns:sodipodi="http://sodipodi.sourceforge.net/DTD/sodipodi-0.dtd" xmlns:inkscape="http://www.inkscape.org/namespaces/inkscape" viewBox="0 0 16 16" version="1.1">
 <metadata id="metadata12">
  <rdf:RDF>
   <cc:Work>
    <dc:format>image/svg+xml</dc:format>
    <dc:type rdf:resource="http://purl.org/dc/dcmitype/StillImage"/>
   </cc:Work>
  </rdf:RDF>
 </metadata>
 <defs id="defs10"/>
 <sodipodi:namedview pagecolor="#ffffff" bordercolor="#666666" borderopacity="1" objecttolerance="10" gridtolerance="10" guidetolerance="10" inkscape:pageopacity="0" inkscape:pageshadow="2" inkscape:window-width="2560" inkscape:window-height="1319" id="namedview8" showgrid="true" inkscape:zoom="41.7193" inkscape:cx="2.4747858" inkscape:cy="1.7700323" inkscape:window-x="0" inkscape:window-y="30" inkscape:window-maximized="1" inkscape:current-layer="svg6">
  <inkscape:grid type="xygrid" id="grid820"/>
 </sodipodi:namedview>





     /&amp;gt;
  <path d="m2 2c-.554 0-1 .446-1 1v12c0 .554.446 1 1 1h12c.554 0 1-.446 1-1v-12c0-.554-.446-1-1-1h-1v2c0 .554-.446 1-1 1h-8c-.554 0-1-.446-1-1v-2z" fill="#eac282" id="path2"/> <path inkscape:connector-curvature="0" d="M 8,0 A 2,2 0 0 0 6,2 H 4 V 3 C 3.446,3 3,3.446 3,4 v 10 c 0,0.554 0.446,1 1,1 h 8 c 0.554,0 1,-0.446 1,-1 V 4 C 13,3.446 12.554,3 12,3 V 2 H 10 A 2,2 0 0 0 8,0 Z M 8,1 A 1,1 0 0 1 9,2 1,1 0 0 1 8,3 1,1 0 0 1 7,2 1,1 0 0 1 7.0058594,1.9003906 1,1 0 0 1 8,1 Z" id="rect816" opacity="1" stroke-dasharray="none" stroke-opacity="1" fill="#808080" stroke="none" stroke-linejoin="round" fill-opacity="1" stroke-linecap="round" stroke-width="2" stroke-miterlimit="4"/> <path inkscape:connector-curvature="0" d="m 4,4 v 10 h 8 V 4 Z" id="rect818" opacity="1" stroke-dasharray="none" stroke-opacity="1" fill="#fdf9f3" stroke="none" stroke-linejoin="round" fill-opacity="1" stroke-linecap="round" stroke-width="2" stroke-miterlimit="4"/> <path inkscape:connector-curvature="0" d="m 9.442308,12.926964 q -0.173077,0 -0.264423,-0.04868 -0.09135,-0.05356 -0.144231,-0.209349 L 8.927885,12.347611 Q 8.745193,12.508273 8.576923,12.629987 8.408654,12.751701 8.225962,12.834466 8.048077,12.917236 7.8413462,12.95618 7.6394232,13 7.3894232,13 7.0817308,13 6.8269231,12.91723 6.5721155,12.829593 6.3846154,12.664062 6.2019231,12.498531 6.1009616,12.255104 6,12.006808 6,11.685483 6,11.417713 6.1346154,11.149943 6.2692308,10.882173 6.5913462,10.667957 6.9182693,10.448872 7.4567308,10.307684 8,10.161628 8.807693,10.142153 V 9.88412 q 0,-0.4673806 -0.192308,-0.6864653 Q 8.423077,8.9785701 8.0625,8.9785701 q -0.2692306,0 -0.4471153,0.063291 Q 7.4423077,9.1051521 7.3076924,9.183049 7.173077,9.256077 7.0576923,9.3193684 6.9423078,9.3826594 6.798077,9.3826594 q -0.125,0 -0.2163462,-0.063291 -0.086538,-0.06816 -0.1394231,-0.1606621 L 6.2211538,8.7692224 q 0.4134616,-0.3894839 0.9134616,-0.5793573 0.5,-0.1898735 1.0817306,-0.1898735 0.41827,0 0.75,0.1411879 0.331731,0.1363194 0.5625,0.389484 0.23077,0.248296 0.350962,0.593963 Q 10,9.4702935 10,9.88412 v 3.042844 z M 7.7692308,12.157733 q 0.3269232,0 0.5625002,-0.116845 0.240385,-0.121714 0.475962,-0.37001 V 10.89191 q -0.475962,0.01947 -0.79327,0.08277 -0.3124998,0.05842 -0.4999998,0.155794 -0.1875001,0.0925 -0.2692308,0.219084 -0.076923,0.126583 -0.076923,0.272639 0,0.292113 0.1586538,0.413827 0.1634616,0.121713 0.4423076,0.121714 z" id="path14" fill="#808080" fill-opacity="1"/></svg>
